vendor/shopware/storefront/Resources/app/storefront/dist/assets/icon/default/basket.svg

<svg xmlns="http://www.w3.org/2000/svg" width="24" height="24" viewBox="0 0 24 24">
  <path fill="#758CA3" fill-rule="evenodd" d="M8,7.00001474 L8,6 C8,4.34314575 9.34314575,3 11,3 L13,3 C14.6568542,3 16,4.34314575 16,6 L16,7.00000689 L21.8458354,7.00000116 C21.9559975,7.00000105 22.0659714,7.0091027 22.1746347,7.02721321 C23.2641754,7.208803 24.0002151,8.23925786 23.8186253,9.32879856 L22.2912248,18.4932177 C22.0501312,19.939782 20.7985607,21.0000216 19.3320429,21.0000216 L4.69425418,21.0000216 C3.22773672,21.0000216 1.97616639,19.9397825 1.73507241,18.4932186 L0.207672381,9.32881843 C0.189562013,9.22015622 0.180460337,9.11018348 0.180460229,9.00002242 C0.180459145,7.89545292 1.07588877,7.00002154 2.18045827,7.00002045 L8,7.00001474 Z M10,7.00001278 L14,7.00000886 L14,6 C14,5.44771525 13.5522847,5 13,5 L11,5 C10.4477153,5 10,5.44771525 10,6 L10,7.00001278 Z M2.18046023,9.00000116 L3.70786025,18.1644206 C3.78822491,18.6466086 4.20541502,19.0000216 4.69425418,19.0000216 L19.3320429,19.0000216 C19.8208822,19.0000216 20.2380723,18.6466084 20.3184369,18.1644203 L21.8458373,9.00000116 L2.18046023,9.00000116 Z M6,11 C6.55228475,11 7,11.4477153 7,12 C7,12.5522847 6.55228475,13 6,13 C5.44771525,13 5,12.5522847 5,12 C5,11.4477153 5.44771525,11 6,11 Z M12,11 C12.5522847,11 13,11.4477153 13,12 C13,12.5522847 12.5522847,13 12,13 C11.4477153,13 11,12.5522847 11,12 C11,11.4477153 11.4477153,11 12,11 Z M18,11 C18.5522847,11 19,11.4477153 19,12 C19,12.5522847 18.5522847,13 18,13 C17.4477153,13 17,12.5522847 17,12 C17,11.4477153 17.4477153,11 18,11 Z M15,15 C15.5522847,15 16,15.4477153 16,16 C16,16.5522847 15.5522847,17 15,17 C14.4477153,17 14,16.5522847 14,16 C14,15.4477153 14.4477153,15 15,15 Z M9,15 C9.55228475,15 10,15.4477153 10,16 C10,16.5522847 9.55228475,17 9,17 C8.44771525,17 8,16.5522847 8,16 C8,15.4477153 8.44771525,15 9,15 Z"/>
</svg>

<svg xmlns="http://www.w3.org/2000/svg" width="24" height="24" viewBox="0 0 24 24"><path fill="#758CA3" fill-rule="evenodd" d="M8 7V6c0-1.6569 1.3431-3 3-3h2c1.6569 0 3 1.3431 3 3v1h5.8458a2 2 0 0 1 .3288.0272c1.0896.1816 1.8256 1.212 1.644 2.3016l-1.5274 9.1644C22.0502 19.9398 20.7986 21 19.332 21H4.6943c-1.4666 0-2.7181-1.0602-2.9592-2.5068L.2077 9.3288A2 2 0 0 1 .1805 9c0-1.1045.8954-2 2-2H8zm2 0h4V6c0-.5523-.4477-1-1-1h-2c-.5523 0-1 .4477-1 1v1zM2.1805 9l1.5274 9.1644A1 1 0 0 0 4.6943 19H19.332a1 1 0 0 0 .9864-.8356L21.8458 9H2.1805zM6 11c.5523 0 1 .4477 1 1s-.4477 1-1 1-1-.4477-1-1 .4477-1 1-1zm6 0c.5523 0 1 .4477 1 1s-.4477 1-1 1-1-.4477-1-1 .4477-1 1-1zm6 0c.5523 0 1 .4477 1 1s-.4477 1-1 1-1-.4477-1-1 .4477-1 1-1zm-3 4c.5523 0 1 .4477 1 1s-.4477 1-1 1-1-.4477-1-1 .4477-1 1-1zm-6 0c.5523 0 1 .4477 1 1s-.4477 1-1 1-1-.4477-1-1 .4477-1 1-1z"/></svg>
